src/images/socialmedia-medium.svg

<?xml version="1.0" encoding="UTF-8" standalone="no"?>
<svg
   xmlns:dc="http://purl.org/dc/elements/1.1/"
   xmlns:cc="http://creativecommons.org/ns#"
   xmlns:rdf="http://www.w3.org/1999/02/22-rdf-syntax-ns#"
   xmlns:svg="http://www.w3.org/2000/svg"
   xmlns="http://www.w3.org/2000/svg"
   viewBox="0 0 160 126.66667"
   height="126.66667"
   width="160"
   xml:space="preserve"
   version="1.1"
   id="svg2"><metadata
     id="metadata8"><rdf:RDF><cc:Work
         rdf:about=""><dc:format>image/svg+xml</dc:format><dc:type
           rdf:resource="http://purl.org/dc/dcmitype/StillImage" /></cc:Work></rdf:RDF></metadata><defs
     id="defs6" /><g
     transform="matrix(1.3333333,0,0,-1.3333333,0,126.66667)"
     id="g10"><g
       transform="scale(0.1)"
       id="g12"><path
         id="path14"
         style="fill:#231f20;fill-opacity:1;fill-rule:nonzero;stroke:none"
         d="m 1200,810 -47.46,0 C 1134.92,810 1110,784.582 1110,768.309 l 0,-589.809 c 0,-16.293 24.92,-38.5 42.54,-38.5 l 47.46,0 0,-140 -430,0 0,140 90,0 0,620 -4.41,0 L 645.422,0 482.707,0 275.25,760 270,760 270,140 360,140 360,0 0,0 0,140 46.0977,140 C 65.082,140 90,162.207 90,178.5 l 0,589.809 C 90,784.582 65.082,810 46.0977,810 L 0,810 l 0,140 450.164,0 147.797,-550 4.066,0 149.164,550 448.809,0 0,-140" /></g></g></svg>

<?xml version="1.0" encoding="UTF-8" standalone="no"?>
<!DOCTYPE svg PUBLIC "-//W3C//DTD SVG 1.1//EN" "http://www.w3.org/Graphics/SVG/1.1/DTD/svg11.dtd">
<svg width="100%" height="100%" viewBox="0 0 151 119" version="1.1" xmlns="http://www.w3.org/2000/svg" xmlns:xlink="http://www.w3.org/1999/xlink" xml:space="preserve" xmlns:serif="http://www.serif.com/" style="fill-rule:evenodd;clip-rule:evenodd;stroke-linejoin:round;stroke-miterlimit:2;">
    <g transform="matrix(1,0,0,1,-4.8634,-3.85019)">
        <g id="path14" transform="matrix(0.125228,3.01954e-33,3.01954e-33,-0.125228,4.8634,122.816)">
            <path d="M1200,810L1152.54,810C1134.92,810 1110,784.582 1110,768.309L1110,178.5C1110,162.207 1134.92,140 1152.54,140L1200,140L1200,0L770,0L770,140L860,140L860,760L855.59,760L645.422,0L482.707,0L275.25,760L270,760L270,140L360,140L360,0L0,0L0,140L46.098,140C65.082,140 90,162.207 90,178.5L90,768.309C90,784.582 65.082,810 46.098,810L0,810L0,950L450.164,950L597.961,400L602.027,400L751.191,950L1200,950L1200,810" style="fill:rgb(35,31,32);fill-rule:nonzero;"/>
        </g>
    </g>
</svg>
